assets/img/link/logo-bluesky.svg

<svg fill="none" height="24" viewBox="0 0 24 24" width="24" xmlns="http://www.w3.org/2000/svg"><path d="m5.20232 2.85661c2.75154 2.06569 5.71118 6.25404 6.79778 8.50179 1.0867-2.24759 4.0461-6.43614 6.7977-8.50179 1.9854-1.49051 5.2022-2.643788 5.2022 1.026 0 .7329-.4202 6.15679-.6667 7.03729-.8566 3.0614-3.9783 3.8423-6.7551 3.3697 4.8538.8261 6.0885 3.5624 3.4219 6.2987-5.0644 5.1968-7.279-1.3039-7.8467-2.9696-.104-.3054-.1527-.4482-.1534-.3268-.0007-.1214-.0494.0214-.1534.3268-.5675 1.6657-2.78206 8.1665-7.84673 2.9696-2.66664-2.7363-1.43193-5.4728 3.42192-6.2987-2.77687.4726-5.89859-.3083-6.755132-3.3697-.246462-.8806-.666658-6.30447-.666658-7.03729 0-3.669788 3.21703-2.51651 5.20232-1.026z" fill="#fcf5eb"/></svg>

<svg width="24" height="24" viewBox="0 0 24 24" fill="none" xmlns="http://www.w3.org/2000/svg">
<path d="M5.20232 2.85661C7.95386 4.9223 10.9135 9.11065 12.0001 11.3584C13.0868 9.11081 16.0462 4.92226 18.7978 2.85661C20.7832 1.3661 24 0.212822 24 3.88261C24 4.61551 23.5798 10.0394 23.3333 10.9199C22.4767 13.9813 19.355 14.7622 16.5782 14.2896C21.432 15.1157 22.6667 17.852 20.0001 20.5883C14.9357 25.7851 12.7211 19.2844 12.1534 17.6187C12.0494 17.3133 12.0007 17.1705 12 17.2919C11.9993 17.1705 11.9506 17.3133 11.8466 17.6187C11.2791 19.2844 9.06454 25.7852 3.99987 20.5883C1.33323 17.852 2.56794 15.1155 7.42179 14.2896C4.64492 14.7622 1.5232 13.9813 0.666658 10.9199C0.420196 10.0393 0 4.61543 0 3.88261C0 0.212822 3.21703 1.3661 5.20232 2.85661Z" fill="#FCF5EB"/>
</svg>
